frontend/src/images/cursor.svg

<svg width="82" height="82" viewBox="0 0 82 82" fill="none" xmlns="http://www.w3.org/2000/svg">
<path d="M-1.52588e-05 40.8031C-1.52588e-05 63.338 18.2682 81.6062 40.8031 81.6062C63.338 81.6062 81.6062 63.338 81.6062 40.8031C81.6062 18.2682 63.338 0 40.8031 0C18.2682 0 -1.52588e-05 18.2682 -1.52588e-05 40.8031Z" fill="#94F7ED"/>
<path d="M59.0673 41.5802L43.9773 26.4248L40.8519 29.6411L50.57 39.2411H22.5388V43.9681H50.4724L40.8519 53.5194L43.9773 56.7357L59.0673 41.5802Z" fill="#10181F"/>
</svg>

<svg width="82" height="82" fill="none" xmlns="http://www.w3.org/2000/svg">
<path d="M0 40.803c0 22.535 18.268 40.803 40.803 40.803 22.535 0 40.803-18.268 40.803-40.803C81.606 18.268 63.338 0 40.803 0 18.268 0 0 18.268 0 40.803z" fill="#94F7ED"/>
<path d="M59.067 41.58l-15.09-15.155-3.125 3.216 9.718 9.6H22.539v4.727h27.933l-9.62 9.551 3.125 3.217 15.09-15.156z" fill="#10181F"/>
</svg>
